64x64/places/folder-indigo-yandex-disk.svg

<svg xmlns="http://www.w3.org/2000/svg" width="64" height="64" version="1"><rect style="opacity:.2" width="56" height="36" x="4" y="22" rx="2.8" ry="2.8"/><path style="fill:#3f51b5" d="M4 46.2C4 47.751 5.249 49 6.8 49h50.4c1.551 0 2.8-1.249 2.8-2.8V15.8c0-1.551-1.249-2.8-2.8-2.8H32c-4.2 0-5.6-6-9.8-6H6.8A2.794 2.794 0 0 0 4 9.8"/><rect style="opacity:.2" width="56" height="36" x="4" y="20" rx="2.8" ry="2.8"/><rect style="fill:#f4f4f7" width="48" height="22" x="8" y="16" rx="2.8" ry="2.8"/><rect style="fill:#8265ff" width="56" height="36" x="4" y="21" rx="2.8" ry="2.8"/><path style="opacity:.1;fill:#f4f4f7" d="M6.8 7C5.25 7 4 8.25 4 9.8v1.001A2.795 2.795 0 0 1 6.8 8H22.2c4.2 0 5.601 6 9.801 6h25.199A2.796 2.796 0 0 1 60 16.801v-1A2.796 2.796 0 0 0 57.199 13H32c-4.2 0-5.601-6-9.801-6z"/><path style="fill:#202543" d="M30.639 30c-4.235 0-4.329 2.827-5.553 4.73a28.307 28.307 0 0 1 4.976-1.777 28.847 28.847 0 0 1 4.901-.83C33.944 31.295 33.233 30 30.639 30zm5.812 4.049c-1.867.036-3.892.324-5.889.84-6.579 1.699-11.269 5.396-10.474 8.256.458 1.634 2.667 3.114 5.957 3.31-.002-.012-.005-.023-.006-.035v-.004c-.004-.029-.014-.055-.018-.084-.192-1.744.806-3.098 1.954-4.053 1.147-.955 2.619-1.646 4.285-2.017A10.528 10.528 0 0 1 34.686 40h.002c1.202.015 2.312.239 3.289.793.806.457 1.543 1.251 1.857 2.232 3.003-1.835 4.555-4.307 4.082-6.033-.525-1.894-3.388-3.023-7.465-2.943zM34.662 42a8.608 8.608 0 0 0-1.967.215c-2.756.614-4.855 2.36-4.685 3.898.17 1.539 2.542 2.287 5.299 1.672 2.756-.615 4.851-2.36 4.681-3.898-.123-1.119-1.434-1.863-3.328-1.887z"/></svg>

<svg xmlns="http://www.w3.org/2000/svg" width="64" height="64" version="1">
 <rect style="opacity:0.2" width="56" height="36" x="4" y="22" rx="2.8" ry="2.8"/>
 <path style="fill:#3f51b5" d="M 4,46.2 C 4,47.751 5.2488,49 6.8,49 H 57.2 C 58.751,49 60,47.751 60,46.2 V 15.8 C 60,14.249 58.751,13 57.2,13 H 32 C 27.8,13 26.4,7 22.2,7 H 6.8 C 5.2488,7 4,8.2488 4,9.8"/>
 <rect style="opacity:0.2" width="56" height="36" x="4" y="20" rx="2.8" ry="2.8"/>
 <rect style="fill:#f4f4f7" width="48" height="22" x="8" y="16" rx="2.8" ry="2.8"/>
 <rect style="fill:#8265ff" width="56" height="36" x="4" y="21" rx="2.8" ry="2.8"/>
 <path style="opacity:0.1;fill:#f4f4f7" d="M 6.8008,7 C 5.2496,7 4,8.2496 4,9.8008 V 10.801 C 4,9.2496 5.2496,8 6.8008,8 H 22.199 C 26.399,8 27.8,14 32,14 H 57.199 C 58.75,14 60,15.25 60,16.801 V 15.801 C 60,14.25 58.75,13 57.199,13 H 32 C 27.8,13 26.399,7 22.199,7 Z"/>
 <path style="fill:#202543" d="M 30.639,30 C 26.404,30 26.31,32.827 25.086,34.73 26.586,34.023 28.258,33.419 30.062,32.953 31.703,32.53 33.357,32.25 34.963,32.123 33.944,31.295 33.233,30 30.639,30 Z M 36.451,34.049 C 34.584,34.085 32.559,34.373 30.562,34.889 23.983,36.588 19.293,40.285 20.088,43.145 20.546,44.779 22.755,46.259 26.045,46.455 26.043,46.443 26.04,46.432 26.039,46.42 26.039,46.419 26.039,46.417 26.039,46.416 26.035,46.387 26.025,46.361 26.021,46.332 25.829,44.588 26.827,43.234 27.975,42.279 29.122,41.324 30.594,40.633 32.26,40.262 33.069,40.081 33.884,39.99 34.686,40 H 34.688 C 35.89,40.015 37,40.239 37.977,40.793 38.783,41.25 39.52,42.044 39.834,43.025 42.837,41.19 44.389,38.718 43.916,36.992 43.391,35.098 40.528,33.969 36.451,34.049 Z M 34.662,42 C 34.031,41.992 33.363,42.066 32.695,42.215 29.939,42.829 27.84,44.575 28.01,46.113 28.18,47.652 30.552,48.4 33.309,47.785 36.065,47.17 38.16,45.425 37.99,43.887 37.867,42.768 36.556,42.024 34.662,42 Z"/>
</svg>
